symbols/web/attractions/materialsymbolsoutlined/attractions_wght700fill1_24px.svg

<svg xmlns="http://www.w3.org/2000/svg" height="24" width="24"><path d="M5.675 22.375 7.1 19.15q-.3-.2-.587-.438-.288-.237-.563-.487-.225.075-.437.112-.213.038-.438.038-.975 0-1.675-.7-.7-.7-.7-1.675 0-.575.238-1.062.237-.488.662-.813-.125-.5-.2-1.038-.075-.537-.075-1.087 0-.55.075-1.088.075-.537.2-1.037-.425-.325-.662-.825Q2.7 8.55 2.7 8q0-1 .7-1.688.7-.687 1.675-.687.275 0 .463.037.187.038.412.113.775-.75 1.725-1.3.95-.55 2-.85.15-.875.813-1.437.662-.563 1.537-.563.9 0 1.55.563.65.562.8 1.437 1.05.3 1.975.825.925.525 1.7 1.275.225-.075.438-.113.212-.037.437-.037 1 0 1.688.687.687.688.687 1.688 0 .55-.225 1.025-.225.475-.625.8.125.55.2 1.1.075.55.075 1.125 0 .55-.075 1.1t-.2 1.05q.4.325.625.8.225.475.225 1.05 0 .975-.687 1.675-.688.7-1.688.7-.225 0-.425-.038-.2-.037-.4-.112-.275.275-.562.525-.288.25-.613.45l1.4 3.175h-1.85L15.45 20q-.25.125-.525.212-.275.088-.55.163-.15.825-.8 1.413-.65.587-1.55.587-.875 0-1.537-.575-.663-.575-.813-1.425-.275-.075-.562-.163-.288-.087-.538-.212l-1.05 2.375Zm2.175-5 1.425-3.225q-.35-.45-.55-1-.2-.55-.2-1.15 0-1.425 1.037-2.463Q10.6 8.5 12.025 8.5t2.463 1.037q1.037 1.038 1.037 2.463 0 .6-.213 1.175-.212.575-.587 1.025l1.425 3.225q.125-.125.3-.237.175-.113.3-.238-.075-.225-.137-.45-.063-.225-.063-.5 0-.95.6-1.613.6-.662 1.475-.762.1-.4.163-.8.062-.4.062-.825 0-.425-.062-.863-.063-.437-.163-.837-.875-.1-1.475-.775-.6-.675-.6-1.575 0-.225.037-.45.038-.225.113-.45-.6-.575-1.3-.975-.7-.4-1.5-.625-.325.45-.812.687-.488.238-1.063.238t-1.062-.238q-.488-.237-.813-.687-.8.225-1.525.65-.725.425-1.325 1 .075.225.112.45.038.225.038.45 0 .9-.575 1.562-.575.663-1.45.788-.1.4-.162.812-.063.413-.063.838t.063.837q.062.413.162.813.875.125 1.45.788.575.662.575 1.562 0 .225-.038.45-.037.225-.112.45.125.125.275.237.15.113.275.238Zm1.5.9.4.15q.2.075.4.125.325-.45.813-.687.487-.238 1.062-.238.575 0 1.063.238.487.237.812.687.2-.05.388-.125.187-.075.362-.15l-1.325-3.025q-.3.125-.625.188-.325.062-.675.062-.375 0-.713-.075-.337-.075-.637-.225Z"/></svg>

<svg xmlns="http://www.w3.org/2000/svg" height="24" width="24"><path d="M5.675 22.375 7.1 19.15Q6.8 18.95 6.513 18.712Q6.225 18.475 5.95 18.225Q5.725 18.3 5.513 18.337Q5.3 18.375 5.075 18.375Q4.1 18.375 3.4 17.675Q2.7 16.975 2.7 16Q2.7 15.425 2.938 14.938Q3.175 14.45 3.6 14.125Q3.475 13.625 3.4 13.087Q3.325 12.55 3.325 12Q3.325 11.45 3.4 10.912Q3.475 10.375 3.6 9.875Q3.175 9.55 2.938 9.05Q2.7 8.55 2.7 8Q2.7 7 3.4 6.312Q4.1 5.625 5.075 5.625Q5.35 5.625 5.538 5.662Q5.725 5.7 5.95 5.775Q6.725 5.025 7.675 4.475Q8.625 3.925 9.675 3.625Q9.825 2.75 10.488 2.188Q11.15 1.625 12.025 1.625Q12.925 1.625 13.575 2.188Q14.225 2.75 14.375 3.625Q15.425 3.925 16.35 4.45Q17.275 4.975 18.05 5.725Q18.275 5.65 18.488 5.612Q18.7 5.575 18.925 5.575Q19.925 5.575 20.613 6.262Q21.3 6.95 21.3 7.95Q21.3 8.5 21.075 8.975Q20.85 9.45 20.45 9.775Q20.575 10.325 20.65 10.875Q20.725 11.425 20.725 12Q20.725 12.55 20.65 13.1Q20.575 13.65 20.45 14.15Q20.85 14.475 21.075 14.95Q21.3 15.425 21.3 16Q21.3 16.975 20.613 17.675Q19.925 18.375 18.925 18.375Q18.7 18.375 18.5 18.337Q18.3 18.3 18.1 18.225Q17.825 18.5 17.538 18.75Q17.25 19 16.925 19.2L18.325 22.375H16.475L15.45 20Q15.2 20.125 14.925 20.212Q14.65 20.3 14.375 20.375Q14.225 21.2 13.575 21.788Q12.925 22.375 12.025 22.375Q11.15 22.375 10.488 21.8Q9.825 21.225 9.675 20.375Q9.4 20.3 9.113 20.212Q8.825 20.125 8.575 20L7.525 22.375ZM7.85 17.375 9.275 14.15Q8.925 13.7 8.725 13.15Q8.525 12.6 8.525 12Q8.525 10.575 9.562 9.537Q10.6 8.5 12.025 8.5Q13.45 8.5 14.488 9.537Q15.525 10.575 15.525 12Q15.525 12.6 15.312 13.175Q15.1 13.75 14.725 14.2L16.15 17.425Q16.275 17.3 16.45 17.188Q16.625 17.075 16.75 16.95Q16.675 16.725 16.613 16.5Q16.55 16.275 16.55 16Q16.55 15.05 17.15 14.387Q17.75 13.725 18.625 13.625Q18.725 13.225 18.788 12.825Q18.85 12.425 18.85 12Q18.85 11.575 18.788 11.137Q18.725 10.7 18.625 10.3Q17.75 10.2 17.15 9.525Q16.55 8.85 16.55 7.95Q16.55 7.725 16.587 7.5Q16.625 7.275 16.7 7.05Q16.1 6.475 15.4 6.075Q14.7 5.675 13.9 5.45Q13.575 5.9 13.088 6.137Q12.6 6.375 12.025 6.375Q11.45 6.375 10.963 6.137Q10.475 5.9 10.15 5.45Q9.35 5.675 8.625 6.1Q7.9 6.525 7.3 7.1Q7.375 7.325 7.412 7.55Q7.45 7.775 7.45 8Q7.45 8.9 6.875 9.562Q6.3 10.225 5.425 10.35Q5.325 10.75 5.263 11.162Q5.2 11.575 5.2 12Q5.2 12.425 5.263 12.837Q5.325 13.25 5.425 13.65Q6.3 13.775 6.875 14.438Q7.45 15.1 7.45 16Q7.45 16.225 7.412 16.45Q7.375 16.675 7.3 16.9Q7.425 17.025 7.575 17.137Q7.725 17.25 7.85 17.375ZM9.35 18.275Q9.55 18.35 9.75 18.425Q9.95 18.5 10.15 18.55Q10.475 18.1 10.963 17.863Q11.45 17.625 12.025 17.625Q12.6 17.625 13.088 17.863Q13.575 18.1 13.9 18.55Q14.1 18.5 14.288 18.425Q14.475 18.35 14.65 18.275L13.325 15.25Q13.025 15.375 12.7 15.438Q12.375 15.5 12.025 15.5Q11.65 15.5 11.312 15.425Q10.975 15.35 10.675 15.2Z"/></svg>
